build/documents/ScanRedoOutline.svg

<svg xmlns="http://www.w3.org/2000/svg" fill="none" viewBox="0 0 24 24" focusable="false"><path d="M0 0H24V24H0z"/><path fill="#74767B" fill-rule="evenodd" d="M13.4949 4.3L7.00002 4.3C6.06114 4.3 5.30002 5.06112 5.30002 6L5.30002 11.35L18.7 11.35L18.7 9.29679C18.7 9.19632 18.6911 9.0968 18.6738 8.99928L15.9528 8.99929C14.8758 8.99929 14.0028 8.12625 14.0028 7.04929L14.0028 4.37763C13.8398 4.3266 13.6687 4.3 13.4949 4.3ZM4.00002 6L4.00002 11.35L2.60923 11.35C2.25024 11.35 1.95923 11.641 1.95923 12C1.95923 12.359 2.25024 12.65 2.60923 12.65L21.3909 12.65C21.7499 12.65 22.0409 12.359 22.0409 12C22.0409 11.641 21.7499 11.35 21.3909 11.35L20 11.35L20 9.29679C20 8.46926 19.6582 7.67849 19.0554 7.11153L15.5503 3.81474C14.9939 3.29139 14.2588 3 13.4949 3L7.00002 3C5.34317 3 4.00002 4.34315 4.00002 6ZM15.3028 5.36659L17.7829 7.69929L15.9528 7.69929C15.5938 7.69929 15.3028 7.40827 15.3028 7.04929L15.3028 5.36659ZM4.00002 14.5944C4.00002 14.2355 4.29104 13.9444 4.65002 13.9444C5.00901 13.9444 5.30002 14.2355 5.30002 14.5944L5.30002 18C5.30002 18.9389 6.06114 19.7 7.00002 19.7L12.1207 19.7C12.4796 19.7 12.7707 19.991 12.7707 20.35C12.7707 20.709 12.4796 21 12.1207 21L7.00002 21C5.34317 21 4.00002 19.6569 4.00002 18L4.00002 14.5944ZM18.1059 21.65C16.1634 21.65 14.5568 20.2124 14.2918 18.3432L13.8845 18.7578C13.6329 19.0139 13.2214 19.0176 12.9653 18.7661C12.7092 18.5145 12.7055 18.103 12.9571 17.8469L14.5071 16.2688C14.7587 16.0127 15.1702 16.009 15.4263 16.2605L17.0044 17.8106C17.2605 18.0622 17.2642 18.4737 17.0127 18.7298C16.7611 18.9859 16.3496 18.9896 16.0935 18.738L15.5928 18.2462C15.8048 19.4419 16.8493 20.35 18.1059 20.35C19.5155 20.35 20.6583 19.2073 20.6583 17.7976C20.6583 16.3879 19.5155 15.2452 18.1059 15.2452C17.8114 15.2452 17.53 15.2948 17.2685 15.3855C16.9294 15.5033 16.559 15.3238 16.4413 14.9846C16.3236 14.6455 16.5031 14.2751 16.8422 14.1574C17.2389 14.0197 17.6644 13.9452 18.1059 13.9452C20.2335 13.9452 21.9583 15.67 21.9583 17.7976C21.9583 19.9252 20.2335 21.65 18.1059 21.65Z"/></svg>

<svg xmlns="http://www.w3.org/2000/svg" fill="none" viewBox="0 0 24 24" focusable="false"><path fill="#74767B" fill-rule="evenodd" d="M13.49 4.3H7c-.94 0-1.7.76-1.7 1.7v5.35h13.4V9.29q0-.15-.03-.3h-2.72c-1.08 0-1.95-.87-1.95-1.95V4.37c-.17-.05-.34-.07-.51-.07M4 6v5.35H2.6c-.35 0-.65.29-.65.65 0 .35.3.65.65.65h18.79c.35 0 .65-.3.65-.65 0-.36-.3-.65-.65-.65H20V9.29c0-.83-.35-1.62-.95-2.18l-3.5-3.3c-.56-.52-1.3-.81-2.06-.81H7C5.34 3 4 4.34 4 6m11.3-.64 2.48 2.33h-1.83c-.36 0-.65-.29-.65-.65zM4 14.59c0-.36.29-.65.64-.65.36 0 .66.29.66.65V18c0 .93.76 1.7 1.7 1.7h5.12c.35 0 .65.29.65.65 0 .35-.3.65-.65.65H7c-1.66 0-3-1.35-3-3zm14.1 7.06a3.85 3.85 0 0 1-3.81-3.31l-.41.41c-.25.26-.66.26-.92.01a.65.65 0 0 1-.01-.92l1.55-1.58c.25-.25.67-.26.92 0L17 17.81c.26.25.26.66.01.91-.25.26-.67.26-.92.01l-.5-.49c.21 1.2 1.25 2.11 2.51 2.11 1.41 0 2.55-1.15 2.55-2.56s-1.14-2.55-2.55-2.55c-.29 0-.57.05-.84.14a.636.636 0 0 1-.82-.4.65.65 0 0 1 .4-.83c.39-.14.82-.21 1.26-.21 2.13 0 3.85 1.73 3.85 3.85 0 2.13-1.72 3.86-3.85 3.86"/></svg>
